rusokon/images/icon-antip-3.svg

<svg xmlns="http://www.w3.org/2000/svg" width="86" height="86" viewBox="0 0 86 86"><defs><style>.cls-1{fill:#f1f1f1;}.cls-2{fill:#ff1a46;stroke:#fff;stroke-miterlimit:10;stroke-width:0.5px;}</style></defs><title>icon-antip-3</title><path class="cls-1" d="M0 0h86v86h-86z"/><path class="cls-2" d="M69.8 23.4l-13-7.3a1.27 1.27 0 0 0-.6-.1 1.08 1.08 0 0 0-.6.1l-12.6 7-12.5-7.1a1.27 1.27 0 0 0-.6-.1 1.08 1.08 0 0 0-.6.1l-13 7.3a1.33 1.33 0 0 0-.6 1v44.7a1.1 1.1 0 0 0 .6 1 1.27 1.27 0 0 0 .6.1 4.33 4.33 0 0 0 .5-.1l12.5-7.1 12.4 7.1a1.09 1.09 0 0 0 .5.1h.2a4.33 4.33 0 0 0 .5-.1l12.5-7.1 12.7 7.1a1.09 1.09 0 0 0 .5.1l.6-.1a1.33 1.33 0 0 0 .6-1v-44.7a1.46 1.46 0 0 0-.6-.9zm-41.2 37.6l-10.7 6.1v-42.1l10.7-6.1zm13.2 6.1l-10.8-6.1v-42.1l10.8 6.1zm13.2-6.1l-10.7 6.1v-42.1l10.7-6.1zm13.1 6.1l-10.7-6.1v-42.1l10.7 6.1z"/></svg>

<svg id="Layer_1" data-name="Layer 1" xmlns="http://www.w3.org/2000/svg" width="86px" height="86px" viewBox="0 0 86 86"><defs><style>.cls-1{fill:#f1f1f1;}.cls-2{fill:#ff1a46;stroke:#fff;stroke-miterlimit:10;stroke-width:0.5px;}</style></defs><title>icon-antip-3</title><rect class="cls-1" width="86" height="86"/><path class="cls-2" d="M69.8,23.4l-13-7.3a1.27,1.27,0,0,0-.6-.1,1.08,1.08,0,0,0-.6.1L43,23.1,30.5,16a1.27,1.27,0,0,0-.6-.1,1.08,1.08,0,0,0-.6.1l-13,7.3a1.33,1.33,0,0,0-.6,1V69a1.1,1.1,0,0,0,.6,1,1.27,1.27,0,0,0,.6.1,4.33,4.33,0,0,0,.5-.1l12.5-7.1L42.3,70a1.09,1.09,0,0,0,.5.1H43a4.33,4.33,0,0,0,.5-.1L56,62.9,68.7,70a1.09,1.09,0,0,0,.5.1c.2,0,.4-.1.6-.1a1.33,1.33,0,0,0,.6-1V24.3A1.46,1.46,0,0,0,69.8,23.4ZM28.6,61,17.9,67.1V25l10.7-6.1Zm13.2,6.1L31,61V18.9L41.8,25ZM55,61,44.3,67.1V25L55,18.9Zm13.1,6.1L57.4,61V18.9L68.1,25Z"/></svg>
